X:6610
T:Gudmund Kalles Polska
S:Falu Spelanslag(8)
R:Polska
Q:1/4=96
O:Sweden
M:3/4
C:e. Petters Erik Eriksson
B:L\aa{}tar fe Dalarna (B\"ackstrom)
K:AMix
A2 f2 e>d| d<B GB GB| e<f g2 f>e | e<c A2 (3Ace |\
a2 b2 a2| e2 g/a/g/e/ f>g|
 f>e d<B GB |1 BA A4:|2 BA A3 \
|:B|\
A>G FE D>F| Ad f2 f>g|
f>e (3Ace (3Ace| f>e dB A>B|\
A>G FE D>F| Ad f2 f>g| f>e (3Ace a>c\
|1 d2 d3 :|2 d2 d4|]


